X: 1
T: sl\"angpolska efter Skinner Albin
T: Sj\"o och Land
O: efter Ulla K\"onig
D: Anders Ros\'en, Kalle Alml\"of "Stamp, Tramp och L\aangkut"
Z: 1998 by John Chambers <jc@trillian.mit.edu>
M: 3/4
L: 1/8
K: Dm
|: "Dm"f>e d^c d>f | "A7"e<^c A4 | A>G FE D>^C |1,3 "D"D>E FG A2 :|2,4 "D"{^C}D2 D4 :|
|: "A7"{D}^CD {D}E3 E | "Dm"DE F3 F \
| "C7"EF G3 E | "F"FG {G}A3 A \
| "Gm"B>A G^F G>B | "Dm"A<G F3 F \
| "A7"E>D ^CD E>C | "Dm"{^C}D2 D4 :|

%%sep 1 1 500

